assets/icons/functional/design/align-right.svg

<svg width="32" height="32" viewBox="0 0 32 32" fill="none" xmlns="http://www.w3.org/2000/svg"><g id="Icon-AlignRight"><g clip-path="url(#clip0_8_1740)"><g id="size=md (32px)"><g id="AlignRight"><path id="Vector" d="M27 5V27" stroke="#101828" stroke-width="2" stroke-linecap="round" stroke-linejoin="round"/><path id="Vector_2" d="M10 14L22 14C22.5523 14 23 13.5523 23 13V8C23 7.44772 22.5523 7 22 7L10 7C9.44771 7 9 7.44772 9 8V13C9 13.5523 9.44771 14 10 14Z" stroke="#101828" stroke-width="2" stroke-linecap="round" stroke-linejoin="round"/><path id="Vector_3" d="M22 18H5C4.44772 18 4 18.4477 4 19V24C4 24.5523 4.44772 25 5 25H22C22.5523 25 23 24.5523 23 24V19C23 18.4477 22.5523 18 22 18Z" stroke="#101828" stroke-width="2" stroke-linecap="round" stroke-linejoin="round"/></g></g></g></g><defs><clipPath id="clip0_8_1740"><rect width="32" height="32" rx="5" fill="white"/></clipPath></defs></svg>

<svg xmlns="http://www.w3.org/2000/svg" width="32" height="32" fill="none"><path stroke="#101828" stroke-linecap="round" stroke-linejoin="round" stroke-width="2" d="M27 5v22M10 14h12a1 1 0 0 0 1-1V8a1 1 0 0 0-1-1H10a1 1 0 0 0-1 1v5a1 1 0 0 0 1 1Zm12 4H5a1 1 0 0 0-1 1v5a1 1 0 0 0 1 1h17a1 1 0 0 0 1-1v-5a1 1 0 0 0-1-1Z"/></svg>
